X: 2
T: No_11_I_Am_Going_to_Cure_This_Sick_Man.krn
N: Derived from No_11_I_Am_Going_to_Cure_This_Sick_Man.krn
%%abc-version 2.0
%%abcx-abcm2ps-target-version 5.9.1 (29 Sep 2008)
%%abc-creator hum2abc beta
%%abcx-conversion-date 2019/03/15 08:26:49
%%humdrum-veritas 794814669
%%humdrum-veritas-data 2421795693
%%linebreak <none>
%%barnumbers 0
L: 1/8
M: 2/4
%%staves {1 2}
V: 1 clef=bass
V: 2 clef=bass
K: F
[V:1] [K:clef=bass][M:2/4]z2z3/ D,/ | 
[V:2] [K:clef=bass][M:2/4]G,,G,, G,,G,, | 
[V:1] F,2A,2 | 
[V:2] G,,G,,z2 | 
[V:1] C z/ C/ (3CA,F, ]|:  
[V:2] z4 ]|:  
[V:1] A,2F,2 | 
[V:2] z4 | 
[V:1] F,2F,2 | 
[V:2] z4 | 
[V:1] A,3/A,/A,2 | 
[V:2] z4 | 
[V:1] A,3/G,/ F, z | 
[V:2] z4 | 
[V:1] F,2D,2 | 
[V:2] z4 | 
[V:1] D,2D, z | 
[V:2] z4 | 
[V:1] D,2F,2 | 
[V:2] z4 | 
[V:1] (3A,G,F, F,3/D,/ | 
[V:2] z4 | 
[V:1] F,2D,2 | 
[V:2] z4 | 
[V:1] D,2D, z | 
[V:2] z4 | 
[V:1] D,D,D,2 | 
[V:2] z4 | 
[V:1] D,3/D,/ D, z | 
[V:2] z4 | 
[V:1] D,4 | 
[V:2] z4 | 
[V:1] F,2G,F,/ z/ | 
[V:2] z4 | 
[V:1] F,2A,2 | 
[V:2] z4 | 
[V:1] C3/C/ A,3/F,/ :|]  
[V:2] z4 :|]  



